X: 42856
T: Wild Irishman, The
R: reel
M: 4/4
K: Dmajor
d2fa gefd|Adfd Acec|d2fa gefd|fgec dAFA|
d2fa gefd|Adfd Acec|defd efgb|afge dgfg||
edcB ABcd|eA~A2 eAfg|edcA EAce|fa[eg][ce] dcfg|
edcB ABcd|eA~A2 egfg|edcA EAce|fa[eg][ce] dAFA|

